icon-svg/hubitat.svg

<svg xmlns="http://www.w3.org/2000/svg" fill="#44739e" viewBox="0 0 24 24"><path d="m18.726 4.978-.904-.752-.062.048.857.751Zm.67.393.3.327h.062l-.479-.577-.256-.15-.372-.328-.034.038.686.652Zm.816.617L19.15 4.827l-.096-.054v.02l1.106 1.233zm-2.755 10.624a.257.257 0 0 0 .256-.261l-.076-6.322a.418.418 0 0 0-.151-.315l-5.233-4.343-4.512 3.76c-.255.287-.432.384-.5.556a.47.47 0 0 0-.03.194.826.826 0 0 0 .439.594c.628-.256 4.52-3.37 4.52-3.37l4.111 3.2-.014 4.958-6.7.279a2.4 2.4 0 0 0-.829.122q0 .048.622.091a8.64 8.64 0 0 0-2.157.2c0 .028.109.055.327.082l-.164.178 1.09-.015-.369.109.7.022-.532.183c2.245.118 7.92.103 9.202.098m4.461-5.651a10.21 10.21 0 0 0-1.748-4.543l-.287-.246.437.628-.355-.423-.136-.137-.246-.34-.492-.56.82 1.284-.312-.4-.658-.833-.287-.315-.164.028.861.956-.492-.46-.888-.874-.764-.519.04-.082-.095-.136-.724-.328-.751-.232 1.448.642-.137.082.3.246.682.45 1.291 1.3.1.1-.041.1-.42-.518-.847-.793-1.3-.846.184.136a9 9 0 0 1 .881.656 8.85 8.85 0 0 1 3.16 5.717 8.2 8.2 0 0 1 .1 1.3 9.044 9.044 0 0 1-8.978 8.81A8.852 8.852 0 0 1 3.348 12a8.662 8.662 0 0 1 5.323-7.954l.7-.428-.136-.1-1.161.41 1.079-.5-.988.267.624-.239.186-.206-2.367 1.174 2.363-1.311-.778.24.519-.268-.847.268.535-.336a6.9 6.9 0 0 0-1.178.383 7.02 7.02 0 0 0-1.957 1.245c-.1.093-.2.188-.3.286a9.921 9.921 0 0 0 0 14.144 10.186 10.186 0 0 0 14.287 0c.234-.231.455-.472.662-.72a9.733 9.733 0 0 0 2.004-7.394"/></svg>

<?xml version="1.0" encoding="UTF-8"?>
<svg width="24px" fill="#44739e" height="24px" viewBox="0 0 24 24" version="1.1" xmlns="http://www.w3.org/2000/svg" xmlns:xlink="http://www.w3.org/1999/xlink">
            <path d="M 18.726,4.978 17.822,4.226 17.76,4.274 18.617,5.025 Z m 0.67,0.393 0.3,0.327 h 0.062 L 19.279,5.121 19.023,4.971 18.651,4.643 18.617,4.681 19.303,5.333 Z M 20.212,5.988 19.15,4.827 19.054,4.773 v 0.02 l 1.106,1.233 z m -2.755,10.624 a 0.257,0.257 0 0 0 0.256,-0.261 L 17.637,10.029 A 0.418,0.418 0 0 0 17.486,9.714 L 12.253,5.371 7.741,9.131 C 7.486,9.418 7.309,9.515 7.241,9.687 a 0.47,0.47 0 0 0 -0.03,0.194 0.826,0.826 0 0 0 0.439,0.594 c 0.628,-0.256 4.52,-3.37 4.52,-3.37 l 4.111,3.2 -0.014,4.958 -6.7,0.279 a 2.406,2.406 0 0 0 -0.829,0.122 q 0,0.048 0.622,0.091 a 8.636,8.636 0 0 0 -2.157,0.2 c 0,0.028 0.109,0.055 0.327,0.082 l -0.164,0.178 1.09,-0.015 -0.369,0.109 0.7,0.022 -0.532,0.183 c 2.245,0.118 7.92,0.103 9.202,0.098 z m 4.461,-5.651 A 10.213,10.213 0 0 0 20.17,6.418 L 19.883,6.172 20.32,6.8 19.965,6.377 19.829,6.24 19.583,5.9 19.091,5.34 19.911,6.624 19.599,6.224 18.941,5.391 18.654,5.076 18.49,5.104 19.351,6.06 18.859,5.6 17.971,4.726 17.207,4.207 17.247,4.125 17.152,3.989 16.428,3.661 15.677,3.429 l 1.448,0.642 -0.137,0.082 0.3,0.246 0.682,0.45 1.291,1.3 0.1,0.1 -0.041,0.1 -0.42,-0.518 -0.847,-0.793 -1.3,-0.846 0.184,0.136 a 8.972,8.972 0 0 1 0.881,0.656 8.849,8.849 0 0 1 3.16,5.717 v 0 a 8.228,8.228 0 0 1 0.1,1.3 A 9.044,9.044 0 0 1 12.1,20.811 8.852,8.852 0 0 1 3.348,12 8.662,8.662 0 0 1 8.671,4.046 L 9.371,3.618 9.235,3.518 8.074,3.928 9.153,3.428 8.165,3.695 8.789,3.456 8.975,3.25 6.608,4.424 8.971,3.113 8.193,3.353 8.712,3.085 7.865,3.353 8.4,3.017 A 6.885,6.885 0 0 0 7.222,3.4 7.02,7.02 0 0 0 5.265,4.645 c -0.1,0.093 -0.2,0.188 -0.3,0.286 a 9.921,9.921 0 0 0 0,14.144 10.186,10.186 0 0 0 14.287,0 c 0.234,-0.231 0.455,-0.472 0.662,-0.72 a 9.733,9.733 0 0 0 2.004,-7.394 z"/>

</svg>
